src/pos-icons/subdirectory-arrow-left.svg

<svg height="24" viewBox="0 0 24 24" width="24" xmlns="http://www.w3.org/2000/svg"><path d="m11 9 1.42 1.42-3.59 3.58h9.17v-10h2v12h-11.17l3.59 3.58-1.42 1.42-6-6z"/></svg>

<?xml version="1.0" encoding="UTF-8"?><!DOCTYPE svg PUBLIC "-//W3C//DTD SVG 1.1//EN" "http://www.w3.org/Graphics/SVG/1.1/DTD/svg11.dtd"><svg xmlns="http://www.w3.org/2000/svg" xmlns:xlink="http://www.w3.org/1999/xlink" version="1.1" id="mdi-subdirectory-arrow-left" width="24" height="24" viewBox="0 0 24 24"><path d="M11,9L12.42,10.42L8.83,14H18V4H20V16H8.83L12.42,19.58L11,21L5,15L11,9Z" /></svg>
